X:95
T: Paddy Fitz's
Z: B.Black
R: slide
M: 12/8
L: 1/8
K: G
G2 G G2 G BAB d2 B | G2 G G2 A ABA E2 D |
G2 G G2 A BAB def | g2 g g2 e d2 B c2 A :|
d^cd def g2 g g2 e | d2 B BAB d2 B BAB |
d^cd def g2 g g2 e | d2 B cBA G3-G2 :|
